symbols/web/pin/materialsymbolssharp/pin_gradN25_48px.svg

<svg xmlns="http://www.w3.org/2000/svg" height="48" width="48"><path d="M4.25 39.75V8.2h39.5v31.55Zm8.2-9.5h2.05v-12.5h-1.55l-3.6 2.4 1 1.65 2.1-1.4Zm6.6 0h8.1v-1.9H21.7v-.1q.75-.65 1.55-1.325.8-.675 1.45-1.375 1.05-1.05 1.65-1.925.6-.875.6-2.175 0-1.55-1.1-2.625T23 17.75q-1.45 0-2.475.7-1.025.7-1.525 1.8l1.9.9q.25-.55.825-.95.575-.4 1.275-.4.9 0 1.4.5.5.5.5 1.2 0 1-.5 1.675T23.05 24.6q-1.15 1.1-2.025 1.9-.875.8-1.975 1.8Zm15.6 0q1.75 0 2.925-.875 1.175-.875 1.175-2.725 0-1.2-.65-2t-1.7-.9v-.05q.95-.3 1.425-.975.475-.675.475-1.775 0-1.45-1.1-2.325-1.1-.875-2.65-.875-1.05 0-2.05.6-1 .6-1.6 1.7l1.65.9q.4-.55.925-.875.525-.325 1.125-.325.75 0 1.225.425.475.425.475 1.175 0 .85-.575 1.15-.575.3-1.525.3h-.7v1.9h.75q.95 0 1.725.5.775.5.775 1.45 0 .9-.575 1.375t-1.525.475q-.75 0-1.45-.475t-1-1.325l-1.7.6q.4 1.35 1.4 2.15 1 .8 2.75.8ZM7.15 36.9H40.9V11.1H7.15Zm0 0V11.1v25.8Z"/></svg>

<svg xmlns="http://www.w3.org/2000/svg" height="48" width="48"><path d="M4.25 39.75V8.2H43.75V39.75ZM12.45 30.25H14.5V17.75H12.95L9.35 20.15L10.35 21.8L12.45 20.4ZM19.05 30.25H27.15V28.35H21.7V28.25Q22.45 27.6 23.25 26.925Q24.05 26.25 24.7 25.55Q25.75 24.5 26.35 23.625Q26.95 22.75 26.95 21.45Q26.95 19.9 25.85 18.825Q24.75 17.75 23 17.75Q21.55 17.75 20.525 18.45Q19.5 19.15 19 20.25L20.9 21.15Q21.15 20.6 21.725 20.2Q22.3 19.8 23 19.8Q23.9 19.8 24.4 20.3Q24.9 20.8 24.9 21.5Q24.9 22.5 24.4 23.175Q23.9 23.85 23.05 24.6Q21.9 25.7 21.025 26.5Q20.15 27.3 19.05 28.3ZM34.65 30.25Q36.4 30.25 37.575 29.375Q38.75 28.5 38.75 26.65Q38.75 25.45 38.1 24.65Q37.45 23.85 36.4 23.75V23.7Q37.35 23.4 37.825 22.725Q38.3 22.05 38.3 20.95Q38.3 19.5 37.2 18.625Q36.1 17.75 34.55 17.75Q33.5 17.75 32.5 18.35Q31.5 18.95 30.9 20.05L32.55 20.95Q32.95 20.4 33.475 20.075Q34 19.75 34.6 19.75Q35.35 19.75 35.825 20.175Q36.3 20.6 36.3 21.35Q36.3 22.2 35.725 22.5Q35.15 22.8 34.2 22.8H33.5V24.7H34.25Q35.2 24.7 35.975 25.2Q36.75 25.7 36.75 26.65Q36.75 27.55 36.175 28.025Q35.6 28.5 34.65 28.5Q33.9 28.5 33.2 28.025Q32.5 27.55 32.2 26.7L30.5 27.3Q30.9 28.65 31.9 29.45Q32.9 30.25 34.65 30.25ZM7.15 36.9H40.9V11.1H7.15ZM7.15 36.9V11.1V36.9Z"/></svg>
